!!!!SEGMENT: pl-wtm--r-275-m--002_moniuszko-stanislaw--pienia-zalobne-graduale.krn
!!!cenid: 18xx:2972
!!!COM: Moniuszko, Stanisław
!!!COM-rismid: pe30008351
!!!CDT: 1819/05/05-1872/06/04
!!!CNT: Polish
!!!OPR: Pienia żałobne
!!!OTL: Graduale
!!!OMV: 002
!!!PDT: 1869
!!!AGN: Sacred; Mass
!!!SMS-siglum: PL-Wtm
!!!SMS-shelfmark: R 275/M
!!!SMS-shelfwork: 001-002 M
!!!SMS-variant:
!!!SMS-altvar:
!!!NIFC-rismid: 1001096617
!!!URL-scan: http://repozytorium.nifc.pl/skany/pl-wtm-nut--r275m
!!!ONB-nifc: UWAGA: tylko partytura kwartetu smyczkowego. Części: 1. Kyrie, 2. Graduale, 3. Offertorium, 4. Sanctus, 5. Agnus
!!!AIN: 1 cello 1 viola 2 violn
!!!key:
**kern	**dynam	**kern	**dynam	**kern	**dynam	**kern	**dynam
*part4	*part4	*part3	*part3	*part2	*part2	*part1	*part1
*staff4	*	*staff3	*	*staff2	*	*staff1	*
*Icello	*	*Iviola	*	*Ivioln	*	*Ivioln	*
*I"[Violoncelli e Contrabbassi]	*	*I"[Viole]	*	*I"[Violini 2]	*	*I"[Violini 1]	*
*clefF4	*	*clefC3	*	*clefG2	*	*clefG2	*
*k[f#c#]	*	*k[f#c#]	*	*k[f#c#]	*	*k[f#c#]	*
*g:	*	*g:	*	*g:	*	*g:	*
*M4/4	*	*M4/4	*	*M4/4	*	*M4/4	*
*met(c)	*	*met(c)	*	*met(c)	*	*met(c)	*
*all\right	*	*all\right	*	*all\right	*	*all\right	*
!LO:TX:t=P:problem=all\right&colon; global	!	!LO:TX:t=P:problem=all\right&colon; global	!	!LO:TX:t=P:problem=all\right&colon; global	!	!LO:TX:t=P:problem=all\right&colon; global	!
!	!	!	!	!	!	!LO:TX:t=P:znaki:problem= f# zamiast ff#	!
!	!	!LO:TX:t=P:znaki:problem= F# zamiast f#	!	!LO:TX:t=P:znaki:problem= f# zamiast ff#	!	!LO:TX:a:t=Maestoso.	!
4r	.	4r	.	4r	.	4r	.
=1	=1	=1	=1	=1	=1	=1	=1
!LO:TX:a:t=1.	!	!LO:TX:a:t=1.	!	!LO:TX:a:t=1.	!	!LO:TX:a:t=1.	!
1r	.	1r	.	1r	.	1r	.
=2	=2	=2	=2	=2	=2	=2	=2
*^	*	*	*	*	*	*	*
2r	1rGG	.	2r	.	2r	.	2r	.
4r	.	.	4r	.	4r	.	4r	.
!	!	!LO:DY:rj	!	!LO:DY:rj	!	!LO:DY:rj	!	!LO:DY:rj
4A/	.	ff	4A/	ff	4a/	ff	4a/	ff
=3	=3	=3	=3	=3	=3	=3	=3	=3
*	*2\right	*	*	*	*	*	*	*
4D^>/ 4A	2D^<\	.	4A^</ 4d	.	4d^</ 4f# 4a	.	4d^</ 4dd	.
8.D^>/L 8.A	.	.	8.A^</L 8.d	.	8.f#^</L 8.a	.	8.d^</L 8.dd	.
16D/Jk 16A	.	.	16A/Jk 16d	.	16f#/Jk 16a	.	16d/Jk 16dd	.
!LO:TX:b:t=g	!	!	!	!	!	!	!	!
4D^>/ 4B	4GG^<\	.	4G^</ 4d	.	4g^</ 4b	.	4d^</ 4dd	.
4D^>/ 4B	4GG^<\	.	4G^</ 4d	.	4g^</ 4b	.	4dd^>\ 4ee	.
=4	=4	=4	=4	=4	=4	=4	=4	=4
*	*	*	*	*	*	*	*2\right	*
!	!LO:TX:t=P:problem=note position	!	!	!	!LO:TX:t=P:problem=diminuendolike accent	!	!LO:TX:t=P:problem=diminuendolike accent	!
2D^/ 2A	2D^\	.	2A^/ 2d	.	2f#/ 2a^<	.	2dd\ 2ff#^>	.
2r	2ryy	.	2r	.	2r	.	2r	.
*v	*v	*	*	*	*	*	*	*
=5	=5	=5	=5	=5	=5	=5	=5
!LO:TX:a:t=1	!	!LO:TX:a:t=1	!	!LO:TX:a:t=1	!	!LO:TX:a:t=1	!
1r	.	1r	.	1r	.	1r	.
=6	=6	=6	=6	=6	=6	=6	=6
*^	*	*	*	*	*	*	*
2r	1rGG	.	2r	.	2r	.	2r	.
4r	.	.	4r	.	4r	.	4r	.
!	!	!LO:DY:rj	!	!LO:DY:rj	!	!LO:DY:rj	!	!LO:DY:rj
4F#/	.	p	4c#/	p	4f#/	p	4a/	p
*v	*v	*	*	*	*	*	*	*
=7	=7	=7	=7	=7	=7	=7	=7
!	!	!LO:TX:t=P:problem=w źródle widnieje zatarta cała nuta "c"	!	!	!	!	!
2D/	.	2.B/	.	2f#/	.	2a/	.
2E/	.	.	.	4e/	.	4g#X/	.
.	.	4G#X/	.	4d/	.	4b/	.
=8	=8	=8	=8	=8	=8	=8	=8
*^	*	*	*	*	*	*	*
2E/	2r	.	2G#X/	.	2d/	.	2b/	.
8A/	4r	.	8A/	.	8c#/	.	8a/	.
8r	.	.	8r	.	8r	.	8r	.
!	!	!LO:DY:rj	!	!LO:DY:rj	!	!	!	!
8A/	8A\	ff	8A/	ff	8a/	ff	8a/	ff
8r	8ryy	.	8r	.	8r	.	8r	.
*v	*v	*	*	*	*	*	*	*
!!LO:PB:g=original
=9	=9	=9	=9	=9	=9	=9	=9
4.G^\	.	4.G^</ 4.d	.	4.B^/ 4.g	.	4.d^</ 4.b	.
8G\	.	8G/ 8d	.	8B/ 8g	.	8d/ 8b	.
4G\	.	4G/ 4d	.	4B/ 4g	.	4d/ 4b	.
8.G\L	.	8.G/L 8.d	.	8.B/L 8.g	.	8.d/L 8.b	.
16G\Jk	.	16G/Jk 16d	.	16B/Jk 16g	.	16d/Jk 16b	.
=10	=10	=10	=10	=10	=10	=10	=10
2F#\	.	2A/ 2d	.	2d/ 2a	.	2d/ 2dd	.
4F#\	.	2ryy	.	4d/ 4a	.	4a/	.
4F#\	.	.	.	4a/	.	4dd/	.
=11	=11	=11	=11	=11	=11	=11	=11
*^	*	*	*	*	*	*	*
4E^>/	4E\	.	4e^\	.	4B^</ 4g	.	4b^>\ 4ee	.
4BB^>/	4BB\	.	8.e\L	.	8.B/L 8.g	.	8.b\L 8.ee	.
.	.	.	16e\Jk	.	16B/Jk 16g	.	16b\Jk 16ee	.
4GG^>/	4GG\	.	4e\	.	4B/ 4g	.	4b\ 4ee	.
4EE^>/	4EE\	.	4e\	.	4g\ 4ee	.	4b\ 4ee	.
=12	=12	=12	=12	=12	=12	=12	=12	=12
*	*	*	*2\right	*	*	*	*	*
2AA^/	2AA\	.	2e\ 2cc#	.	2e^/ 2cc#	.	2a^\ 2gg	.
4D/	4D\	.	4d\ 4dd	.	4d/ 4dd	.	4a\ 4ff#	.
4r	4ryy	.	4r	.	4r	.	4r	.
*v	*v	*	*	*	*	*	*	*
=13	=13	=13	=13	=13	=13	=13	=13
1r	.	1r	.	1r	.	1r	.
=14	=14	=14	=14	=14	=14	=14	=14
1r	.	1r	.	1r	.	1r	.
=15	=15	=15	=15	=15	=15	=15	=15
1r	.	1r	.	1r	.	1r	.
=16	=16	=16	=16	=16	=16	=16	=16
*^	*	*	*	*	*	*	*
!LO:TX:t=P:problem=note position	!	!	!	!	!	!	!	!
(<4.D/	1D	.	(4.D/	.	1r	.	1r	.
8F#/	.	.	8F#/	.	.	.	.	.
8A/L	.	.	8A/L	.	.	.	.	.
8d/	.	.	8d/	.	.	.	.	.
8cn/	.	.	8cn/	.	.	.	.	.
8A/J)	.	.	8A/J)	.	.	.	.	.
!!LO:LB:g=original
=17	=17	=17	=17	=17	=17	=17	=17	=17
!	!	!	!	!	!LO:TX:t=Col 1mo	!	!	!
[>1G	1D	.	(>1B	.	(<4.G/yy	.	(<4.G/	.
.	.	.	.	.	8d/yy	<	8d/	<
.	.	.	.	.	8g/L)yy	.	8g/L)	.
.	.	.	.	.	(>16b-X/Lyy	.	(>16b-X/L	.
.	.	.	.	.	16dd/JJyy	.	16dd/JJ	.
.	.	.	.	.	8gg\Lyy	.	8gg\L	.
.	.	.	.	.	8aa\J)yy	[	8aa\J)	[
=18	=18	=18	=18	=18	=18	=18	=18	=18
1G]	[1D	.	1B-X)	.	(>4.bb-X\yy	>	(4.bb-X\	>
.	.	.	.	.	8gg\yy	.	8gg\	.
.	.	.	.	.	8dd\Lyy	.	8dd\L	.
.	.	.	.	.	8b-X\yy	]	8b-X\	]
.	.	.	.	.	8g\)yy	.	8g\)	.
.	.	.	.	.	8d\Jyy	.	8d\J	.
=19	=19	=19	=19	=19	=19	=19	=19	=19
!	!LO:TX:t=P:problem=note position	!	!	!	!	!	!	!
4.D/	1D_<	.	2A/	.	2d/	.	2A/ 2f#	.
8AA/	.	.	.	.	.	.	.	.
(>8D/L	.	.	(>8D/L	.	2r	.	2r	.
16F#/L	.	.	16F#/L	.	.	.	.	.
16A/JJ	.	.	16A/JJ	.	.	.	.	.
8d\L)	.	.	8d\L)	.	.	.	.	.
8f#\J	.	.	8f#\J	.	.	.	.	.
=20	=20	=20	=20	=20	=20	=20	=20	=20
4.a\	(<1D]	.	4.a\	.	1r	.	1r	.
8f#\	.	.	8f#\	.	.	.	.	.
!!mixed beam:problem
!LO:TX:a:t=P:problem=mixed beam	!	!	!	!	!	!	!	!
8d\L	.	.	8d/L	.	.	.	.	.
8A\	.	.	8A/	.	.	.	.	.
8.F#\	.	.	8.F#/	.	.	.	.	.
16AA/Jk	.	.	16G/Jk	.	.	.	.	.
=21	=21	=21	=21	=21	=21	=21	=21	=21
1AA;>	1DD)	.	1F#;>	.	1d;>	.	1d;>	.
*v	*v	*	*	*	*	*	*	*
!!LO:LB:g=original
==	==	==	==	==	==	==	==
*-	*-	*-	*-	*-	*-	*-	*-
!!!system-decoration: [(s1,s2,s3,s4)]
!!!ENC: Katarzyna Serwa
!!!END: 2021-08-17
!!!EED: Jędrzej Mróz
!!!ESR: 2021-09-15
!!!RDF**kern: > = above
!!!RDF**kern: < = below
